assets/logo-kyber-network-grey.svg

<svg height="68" viewBox="0 0 129 68" width="129" xmlns="http://www.w3.org/2000/svg"><g fill="#282138" fill-rule="evenodd"><path d="m68.8445313 31.9202899c-.3634913.1992434-.7738714.2973445-1.1882813.2840579-.1625 0-.5179687 0-1.1070312-.0811594v1.6637681c.5072396.1312016 1.0300326.1926381 1.5539062.1826087.7273543.0267379 1.4426415-.1911815 2.03125-.6188406.6314061-.5208523 1.1234696-1.1901492 1.4320313-1.947826l4.5601562-10.2666667h-2.153125l-2.7625 6.7260869-2.68125-6.7260869h-2.1835937l3.7476562 8.8362319-.3859375.8623188c-.1704542.4411647-.4716274.819866-.8632812 1.0855073z"/><path d="m79.4984375 29.1304348c.3558788.4761655.8279038.8533645 1.3710937 1.0956522.5925861.2699915 1.2378126.4051301 1.8890625.3956521 1.2332248.0484163 2.4241442-.4534427 3.25-1.3695652.8822216-.9264287 1.3669728-2.1606199 1.3507813-3.4391304.0414535-1.2969362-.4503129-2.5543082-1.3609375-3.4797102-.8554972-.905363-2.0547227-1.4066332-3.3007813-1.3797101h.0710938c-1.2061653-.0488234-2.3675911.4601373-3.1484375 1.3797101v-5.9855072h-2.03125v14.1014493h1.86875v-1.3188406zm.853125-5.5289855c.5420468-.5284993 1.2739529-.8172799 2.03125-.8014493.7648042-.0134627 1.5007211.2916023 2.03125.842029.5553241.5755122.8523146 1.3519542.8226562 2.1507246.0361027.8118822-.2610194 1.6033245-.8226562 2.1913044-.5191412.5702355-1.2597909.8883598-2.03125.8724637-.7495339.0260818-1.479222-.2436018-2.03125-.7507246-.5949868-.5928848-.9026253-1.4148079-.8429688-2.2521739-.056948-.8369733.2502842-1.6578105.8429688-2.2521739z" fill-rule="nonzero"/><path d="m61.684375 43.1101449c-1.0518408-.0379782-2.0704934.3712406-2.803125 1.126087v-.9130435h-1.8789062v9.2623188h2.03125v-5.5289855c-.0283512-.5707014.1855224-1.1268896.5890625-1.531884.4109354-.4020766.9688588-.6183976 1.54375-.5985507.558915-.0142245 1.0989871.2022974 1.4929687.5985507.3935636.4223522.5987917.9861001.56875 1.5623188v5.4985507h2.03125v-5.7724637c.0469967-.975015-.2840162-1.9306121-.9242187-2.668116-.6897892-.7152361-1.6582681-1.0933002-2.6507813-1.0347826z"/><path d="m71.8507813 43.1c-1.2811453-.0000458-2.5092348.511081-3.4113189 1.4197796s-1.4034216 2.1396796-1.3925874 3.4193508c-.0338398 1.297605.486919 2.5482463 1.4320313 3.4391305.9559555.9184024 2.2388075 1.4185585 3.5648437 1.389855 1.3918041.0134798 2.7335069-.5182327 3.7375-1.4811594l-.9445312-1.3492753c-.7378863.6851885-1.7043327 1.0720592-2.7117188 1.0855072-.7293987.018526-1.4441639-.2063741-2.03125-.6391304-.5638086-.4444999-.9288716-1.0935876-1.015625-1.8057971h6.9773438c.0996265-.4047356.1440388-.8210634.1320312-1.2376812.0349808-1.1436103-.4149776-2.2488318-1.2390625-3.0434783-.820966-.8119598-1.943374-1.2457188-3.0976562-1.1971014zm-2.7726563 3.9565217c.1377816-.6515949.4965296-1.2357023 1.015625-1.6536231.480696-.404048 1.0881685-.6266593 1.7164063-.6289856.625036-.014407 1.2318981.2106439 1.6960937.6289856.439587.4355349.6754915 1.0356843.65 1.6536231z" fill-rule="nonzero"/><path d="m94.1742187 30.642029c1.3918042.0134798 2.7335069-.5182328 3.7375-1.4811594l-.9546875-1.3492754c-.7372168.6926436-1.7098026 1.0805192-2.721875 1.0855072-.7293986.018526-1.4441639-.206374-2.03125-.6391304-.5638085-.4444998-.9288715-1.0935875-1.015625-1.8057971h6.9367188c.1204323-.401582.1820089-.8184687.1828125-1.2376811.0349808-1.1436104-.4149776-2.2488319-1.2390625-3.0434783-.8128719-.7936286-1.9104063-1.2284986-3.046875-1.2072464-1.2865183-.0027311-2.5208355.5079491-3.4286343 1.4185458-.9077987.9105967-1.413869 2.1456683-1.4057407 3.4307296-.0288179 1.2946359.486921 2.5420687 1.421875 3.4391304.9534622.9222891 2.2380058 1.4231047 3.5648437 1.3898551zm-2.03125-7.3550725c.4847838-.4026294 1.0961029-.6217406 1.7265625-.6188406.6195128-.0105869 1.2206934.2100826 1.6859375.6188406.4540255.4296156.7080212 1.0289657.7007813 1.6536232h-5.078125c.1247007-.6469001.4690883-1.2309897.975-1.6536232z" fill-rule="nonzero"/><path d="m82.8703125 50.9623188c-.4828718.0424695-.9659633-.0790623-1.3710937-.3449275-.3316268-.3219317-.4964462-.7784215-.446875-1.2376812v-4.3420289h2.7726562v-1.7144928h-2.7726562v-2.4144927h-2.03125v2.4144927h-1.503125v1.7144928h1.5132812v4.5043478c-.0659414.8969897.268681 1.7771796.9140625 2.4043478.7192363.5609421 1.6178232.8421134 2.5289063.7913044.5609389-.0152585 1.1189352-.0866296 1.665625-.2130435v-1.6637681c-.5585938.0608695-.9445313.1014492-1.2390625.1014492z"/><path d="m96.3679688 49.2681159-2.884375-6.157971h-.6804688l-2.8335937 6.2391305-2.4679688-6.026087h-2.1226563l4.1539063 9.4144928h.6804688l2.9351562-6.1275363 2.925 6.1275363h.7007812l4.1437503-9.4144928h-2.1226565z"/><path d="m106.422656 43.1101449c-1.307929-.0282956-2.571717.472997-3.503906 1.3898551-.917386.9036585-1.43385 2.1369322-1.43385 3.423913s.516464 2.5202546 1.43385 3.4239131c1.961671 1.867956 5.046141 1.867956 7.007813 0 .93089-.8984424 1.456585-2.1359947 1.456585-3.4289855 0-1.2929909-.525695-2.5305431-1.456585-3.4289855-.935773-.9102021-2.198063-1.4072458-3.503907-1.3797102zm2.03125 6.9391305c-1.152166 1.1237734-2.991583 1.1237734-4.14375 0-.550604-.5661609-.847495-1.331359-.822656-2.1202899-.034068-.7964846.263769-1.5714687.822656-2.1405797.536096-.5460073 1.265733-.8594013 2.03125-.8724638.763295.0043976 1.493723.3108353 2.03125.8521739.55375.5723952.850707 1.3450886.822657 2.1405798.037782.7822339-.227763 1.5489107-.741407 2.1405797z" fill-rule="nonzero"/><path d="m115.075781 44.5202899v-1.2072464h-1.858593v9.2521739h2.03125v-4.9507246c-.033933-.7089622.248797-1.3964201.771875-1.8768116.540135-.4574779 1.232185-.696349 1.939843-.6695653h.599219v-1.7449275c-.241685-.0647123-.491223-.095443-.741406-.0913043-1.070487-.0467598-2.095632.4349003-2.742188 1.2884058z"/><path d="m102.157031 25.5086957c-.035362-.709208.247608-1.3972488.771875-1.8768116.540614-.4577027 1.231452-.6997684 1.939844-.6797102h.609375v-1.7347826c-.245281-.0639999-.498074-.0947107-.751563-.0913043-1.065619-.0393974-2.082794.4458759-2.721875 1.2985507v-1.2072464h-1.86875v9.2318841h2.03125v-4.9405797z"/><path d="m120.397656 38.4536232h2.000781v14.1217391h-2.000781z"/><path d="m124.815625 47.3710145 3.767969-4.0478261h-2.467969l-3.65625 4.0376812 4.072656 5.2043478h2.407032z"/><path d="m65.1882812 21.1971014h-2.478125l-3.6460937 4.0478261 4.0726562 5.2144928h2.4070313l-4.1234375-5.1942029z"/><path d="m57.0023438 16.3376812h2.0007812v14.1217391h-2.0007812z"/><path d="m20.328125 34.0101449 25.390625 14.5275363c.4154725.2494516.9333956.2554378 1.3545353.0156558s.6798899-.6879785.6767147-1.1721776v-26.7623188c.0061227-.4851838-.2529598-.9351365-.6758871-1.1738241-.4229274-.2386875-.9424679-.2281664-1.3553629.0274473z"/><path d="m45.1804687 13.0405797-17.3570312-12.7521739c-.3663669-.27974502-.8483305-.35840607-1.2847827-.2096888-.4364523.14871726-.7698154.50519371-.8886548.95026851l-6.3375 28.40579709 25.715625-14.2028985c.3979574-.2044864.6600602-.6017766.6912071-1.0477182.0311469-.4459415-.1731878-.8757376-.5388634-1.1334413"/><path d="m27.803125 67.7217391 17.3773438-12.7521739c.3657239-.2609905.5705345-.6921728.5415967-1.140209s-.2875182-.8493556-.6837842-1.0612403l-25.7257813-14.2028985 6.3375 28.4057971c.1067922.4483223.4321459.8129394.8657819.9702637s.9174089.0862604 1.2873431-.1891043"/><path d="m13.7265625 33.4927536 6.6015625-30.85072461c.1031361-.52278444-.1213357-1.05583218-.5675672-1.34778793-.4462314-.29195574-1.0251154-.28451942-1.4636828.01880242l-16.91015625 12.95507242c-.86798097.6651567-1.37513321 1.6970929-1.37109375 2.7898551v32.8695652c-.02008774 1.1105353.48872432 2.1646727 1.37109375 2.8405797l16.82890625 12.9043479c.4385674.3033218 1.0174514.3107581 1.4636828.0188024.4462315-.2919558.6707033-.8250035.5675672-1.3477879z"/></g></svg>

<?xml version="1.0" encoding="UTF-8"?>
<svg width="129px" height="68px" viewBox="0 0 129 68" version="1.1" xmlns="http://www.w3.org/2000/svg" xmlns:xlink="http://www.w3.org/1999/xlink">
    <!-- Generator: Sketch 52.2 (67145) - http://www.bohemiancoding.com/sketch -->
    <title>kyber-network-1</title>
    <desc>Created with Sketch.</desc>
    <g id="Designs" stroke="none" stroke-width="1" fill="none" fill-rule="evenodd">
        <g id="Home" transform="translate(-177.000000, -4052.000000)" fill="#282138">
            <g id="JOIN-THE-WBTC-COMMUNITY" transform="translate(0.000000, 3815.000000)">
                <g id="SECTION---JOIN-THE-WBTC-COMMUNITY" transform="translate(130.000000, 85.000000)">
                    <g id="Logo-DDEX" transform="translate(0.000000, 136.000000)">
                        <g id="kyber-network-1" transform="translate(47.000000, 16.000000)">
                            <path d="M68.8445313,31.9202899 C68.48104,32.1195333 68.0706599,32.2176344 67.65625,32.2043478 C67.49375,32.2043478 67.1382813,32.2043478 66.5492188,32.1231884 L66.5492188,33.7869565 C67.0564584,33.9181581 67.5792514,33.9795946 68.103125,33.9695652 C68.8304793,33.9963031 69.5457665,33.7783837 70.134375,33.3507246 C70.7657811,32.8298723 71.2578446,32.1605754 71.5664063,31.4028986 L76.1265625,21.1362319 L73.9734375,21.1362319 L71.2109375,27.8623188 L68.5296875,21.1362319 L66.3460938,21.1362319 L70.09375,29.9724638 L69.7078125,30.8347826 C69.5373583,31.2759473 69.2361851,31.6546486 68.8445313,31.9202899 Z" id="Path"></path>
                            <path d="M79.4984375,29.1304348 C79.8543163,29.6066003 80.3263413,29.9837993 80.8695312,30.226087 C81.4621173,30.4960785 82.1073438,30.6312171 82.7585937,30.6217391 C83.9918185,30.6701554 85.1827379,30.1682964 86.0085937,29.2521739 C86.8908153,28.3257452 87.3755665,27.091554 87.359375,25.8130435 C87.4008285,24.5161073 86.9090621,23.2587353 85.9984375,22.3333333 C85.1429403,21.4279703 83.9437148,20.9267001 82.6976562,20.9536232 L82.76875,20.9536232 C81.5625847,20.9047998 80.4011589,21.4137605 79.6203125,22.3333333 L79.6203125,16.3478261 L77.5890625,16.3478261 L77.5890625,30.4492754 L79.4578125,30.4492754 L79.4578125,29.1304348 L79.4984375,29.1304348 Z M80.3515625,23.6014493 C80.8936093,23.07295 81.6255154,22.7841694 82.3828125,22.8 C83.1476167,22.7865373 83.8835336,23.0916023 84.4140625,23.642029 C84.9693866,24.2175412 85.2663771,24.9939832 85.2367187,25.7927536 C85.2728214,26.6046358 84.9756993,27.3960781 84.4140625,27.984058 C83.8949213,28.5542935 83.1542716,28.8724178 82.3828125,28.8565217 C81.6332786,28.8826035 80.9035905,28.6129199 80.3515625,28.1057971 C79.7565757,27.5129123 79.4489372,26.6909892 79.5085937,25.8536232 C79.4516457,25.0166499 79.7588779,24.1958127 80.3515625,23.6014493 Z" id="Shape" fill-rule="nonzero"></path>
                            <path d="M61.684375,43.1101449 C60.6325342,43.0721667 59.6138816,43.4813855 58.88125,44.2362319 L58.88125,43.3231884 L57.0023438,43.3231884 L57.0023438,52.5855072 L59.0335938,52.5855072 L59.0335938,47.0565217 C59.0052426,46.4858203 59.2191162,45.9296321 59.6226563,45.5246377 C60.0335917,45.1225611 60.5915151,44.9062401 61.1664063,44.926087 C61.7253213,44.9118625 62.2653934,45.1283844 62.659375,45.5246377 C63.0529386,45.9469899 63.2581667,46.5107378 63.228125,47.0869565 L63.228125,52.5855072 L65.259375,52.5855072 L65.259375,46.8130435 C65.3063717,45.8380285 64.9753588,44.8824314 64.3351563,44.1449275 C63.6453671,43.4296914 62.6768882,43.0516273 61.684375,43.1101449 Z" id="Path"></path>
                            <path d="M71.8507813,43.1 C70.569636,43.0999542 69.3415465,43.611081 68.4394624,44.5197796 C67.5373783,45.4284782 67.0360408,46.6594592 67.046875,47.9391304 C67.0130352,49.2367354 67.533794,50.4873767 68.4789063,51.3782609 C69.4348618,52.2966633 70.7177138,52.7968194 72.04375,52.7681159 C73.4355541,52.7815957 74.7772569,52.2498832 75.78125,51.2869565 L74.8367188,49.9376812 C74.0988325,50.6228697 73.1323861,51.0097404 72.125,51.0231884 C71.3956013,51.0417144 70.6808361,50.8168143 70.09375,50.384058 C69.5299414,49.9395581 69.1648784,49.2904704 69.078125,48.5782609 L76.0554688,48.5782609 C76.1550953,48.1735253 76.1995076,47.7571975 76.1875,47.3405797 C76.2224808,46.1969694 75.7725224,45.0917479 74.9484375,44.2971014 C74.1274715,43.4851416 73.0050635,43.0513826 71.8507813,43.1 Z M69.078125,47.0565217 C69.2159066,46.4049268 69.5746546,45.8208194 70.09375,45.4028986 C70.574446,44.9988506 71.1819185,44.7762393 71.8101563,44.773913 C72.4351923,44.759506 73.0420544,44.9845569 73.50625,45.4028986 C73.945837,45.8384335 74.1817415,46.4385829 74.15625,47.0565217 L69.078125,47.0565217 Z" id="Shape" fill-rule="nonzero"></path>
                            <path d="M94.1742187,30.642029 C95.5660229,30.6555088 96.9077256,30.1237962 97.9117187,29.1608696 L96.9570312,27.8115942 C96.2198144,28.5042378 95.2472286,28.8921134 94.2351562,28.8971014 C93.5057576,28.9156274 92.7909923,28.6907274 92.2039062,28.257971 C91.6400977,27.8134712 91.2750347,27.1643835 91.1882812,26.4521739 L98.125,26.4521739 C98.2454323,26.0505919 98.3070089,25.6337052 98.3078125,25.2144928 C98.3427933,24.0708824 97.8928349,22.9656609 97.06875,22.1710145 C96.2558781,21.3773859 95.1583437,20.9425159 94.021875,20.9637681 C92.7353567,20.961037 91.5010395,21.4717172 90.5932407,22.3823139 C89.685442,23.2929106 89.1793717,24.5279822 89.1875,25.8130435 C89.1586821,27.1076794 89.674421,28.3551122 90.609375,29.2521739 C91.5628372,30.174463 92.8473808,30.6752786 94.1742187,30.642029 Z M92.1429687,23.2869565 C92.6277525,22.8843271 93.2390716,22.6652159 93.8695312,22.6681159 C94.489044,22.657529 95.0902246,22.8781985 95.5554687,23.2869565 C96.0094942,23.7165721 96.2634899,24.3159222 96.25625,24.9405797 L91.178125,24.9405797 C91.3028257,24.2936796 91.6472133,23.70959 92.153125,23.2869565 L92.1429687,23.2869565 Z" id="Shape" fill-rule="nonzero"></path>
                            <path d="M82.8703125,50.9623188 C82.3874407,51.0047883 81.9043492,50.8832565 81.4992188,50.6173913 C81.167592,50.2954596 81.0027726,49.8389698 81.0523438,49.3797101 L81.0523438,45.0376812 L83.825,45.0376812 L83.825,43.3231884 L81.0523438,43.3231884 L81.0523438,40.9086957 L79.0210938,40.9086957 L79.0210938,43.3231884 L77.5179688,43.3231884 L77.5179688,45.0376812 L79.03125,45.0376812 L79.03125,49.542029 C78.9653086,50.4390187 79.299931,51.3192086 79.9453125,51.9463768 C80.6645488,52.5073189 81.5631357,52.7884902 82.4742188,52.7376812 C83.0351577,52.7224227 83.593154,52.6510516 84.1398438,52.5246377 L84.1398438,50.8608696 C83.58125,50.9217391 83.1953125,50.9623188 82.9007813,50.9623188 L82.8703125,50.9623188 Z" id="Path"></path>
                            <polygon id="Path" points="96.3679688 49.2681159 93.4835938 43.1101449 92.803125 43.1101449 89.9695313 49.3492754 87.5015625 43.3231884 85.3789062 43.3231884 89.5328125 52.7376812 90.2132813 52.7376812 93.1484375 46.6101449 96.0734375 52.7376812 96.7742187 52.7376812 100.917969 43.3231884 98.7953125 43.3231884"></polygon>
                            <path d="M106.422656,43.1101449 C105.114727,43.0818493 103.850939,43.5831419 102.91875,44.5 C102.001364,45.4036585 101.4849,46.6369322 101.4849,47.923913 C101.4849,49.2108938 102.001364,50.4441676 102.91875,51.3478261 C104.880421,53.2157821 107.964891,53.2157821 109.926563,51.3478261 C110.857453,50.4493837 111.383148,49.2118314 111.383148,47.9188406 C111.383148,46.6258497 110.857453,45.3882975 109.926563,44.4898551 C108.99079,43.579653 107.7285,43.0826093 106.422656,43.1101449 Z M108.453906,50.0492754 C107.30174,51.1730488 105.462323,51.1730488 104.310156,50.0492754 C103.759552,49.4831145 103.462661,48.7179164 103.4875,47.9289855 C103.453432,47.1325009 103.751269,46.3575168 104.310156,45.7884058 C104.846252,45.2423985 105.575889,44.9290045 106.341406,44.915942 C107.104701,44.9203396 107.835129,45.2267773 108.372656,45.7681159 C108.926406,46.3405111 109.223363,47.1132045 109.195313,47.9086957 C109.233095,48.6909296 108.96755,49.4576064 108.453906,50.0492754 Z" id="Shape" fill-rule="nonzero"></path>
                            <path d="M115.075781,44.5202899 L115.075781,43.3130435 L113.217188,43.3130435 L113.217188,52.5652174 L115.248438,52.5652174 L115.248438,47.6144928 C115.214505,46.9055306 115.497235,46.2180727 116.020313,45.7376812 C116.560448,45.2802033 117.252498,45.0413322 117.960156,45.0681159 L118.559375,45.0681159 L118.559375,43.3231884 C118.31769,43.2584761 118.068152,43.2277454 117.817969,43.2318841 C116.747482,43.1851243 115.722337,43.6667844 115.075781,44.5202899 Z" id="Path"></path>
                            <path d="M102.157031,25.5086957 C102.121669,24.7994877 102.404639,24.1114469 102.928906,23.6318841 C103.46952,23.1741814 104.160358,22.9321157 104.86875,22.9521739 L105.478125,22.9521739 L105.478125,21.2173913 C105.232844,21.1533914 104.980051,21.1226806 104.726562,21.126087 C103.660943,21.0866896 102.643768,21.5719629 102.004687,22.4246377 L102.004687,21.2173913 L100.135937,21.2173913 L100.135937,30.4492754 L102.167187,30.4492754 L102.167187,25.5086957 L102.157031,25.5086957 Z" id="Path"></path>
                            <polygon id="Path" points="120.397656 38.4536232 122.398437 38.4536232 122.398437 52.5753623 120.397656 52.5753623"></polygon>
                            <polygon id="Path" points="124.815625 47.3710145 128.583594 43.3231884 126.115625 43.3231884 122.459375 47.3608696 126.532031 52.5652174 128.939063 52.5652174"></polygon>
                            <polygon id="Path" points="65.1882812 21.1971014 62.7101562 21.1971014 59.0640625 25.2449275 63.1367187 30.4594203 65.54375 30.4594203 61.4203125 25.2652174"></polygon>
                            <polygon id="Path" points="57.0023438 16.3376812 59.003125 16.3376812 59.003125 30.4594203 57.0023438 30.4594203"></polygon>
                            <path d="M20.328125,34.0101449 L45.71875,48.5376812 C46.1342225,48.7871328 46.6521456,48.793119 47.0732853,48.553337 C47.494425,48.313555 47.7531752,47.8653585 47.75,47.3811594 L47.75,20.6188406 C47.7561227,20.1336568 47.4970402,19.6837041 47.0741129,19.4450165 C46.6511855,19.206329 46.131645,19.2168501 45.71875,19.4724638 L20.328125,34.0101449 Z" id="Path"></path>
                            <path d="M45.1804687,13.0405797 L27.8234375,0.288405797 C27.4570706,0.00866078307 26.975107,-0.0700002658 26.5386548,0.0787169991 C26.1022025,0.227434264 25.7688394,0.58391071 25.65,1.02898551 L19.3125,29.4347826 L45.028125,15.2318841 C45.4260824,15.0273977 45.6881852,14.6301075 45.7193321,14.1841659 C45.750479,13.7382244 45.5461443,13.3084283 45.1804687,13.0507246" id="Path"></path>
                            <path d="M27.803125,67.7217391 L45.1804688,54.9695652 C45.5461927,54.7085747 45.7510033,54.2773924 45.7220655,53.8293562 C45.6931277,53.38132 45.4345473,52.9800006 45.0382813,52.7681159 L19.3125,38.5652174 L25.65,66.9710145 C25.7567922,67.4193368 26.0821459,67.7839539 26.5157819,67.9412782 C26.9494179,68.0986025 27.4331908,68.0275386 27.803125,67.7521739" id="Path"></path>
                            <path d="M13.7265625,33.4927536 L20.328125,2.64202899 C20.4312611,2.11924455 20.2067893,1.58619681 19.7605578,1.29424106 C19.3143264,1.00228532 18.7354424,1.00972164 18.296875,1.31304348 L1.38671875,14.2681159 C0.518737776,14.9332726 0.0115855419,15.9652088 0.015625,17.057971 L0.015625,49.9275362 C-0.00446273596,51.0380715 0.504349318,52.0922089 1.38671875,52.7681159 L18.215625,65.6724638 C18.6541924,65.9757856 19.2330764,65.9832219 19.6793078,65.6912662 C20.1255393,65.3993104 20.3500111,64.8662627 20.246875,64.3434783 L13.7265625,33.4927536 Z" id="Path"></path>
                        </g>
                    </g>
                </g>
            </g>
        </g>
    </g>
</svg>
